X: 159
T:Kennet Jig (For Kennet Mixer)
% Nottingham Music Database
S:Pauline Wilson, via Phil Rowe
M:6/8
K:G
|:"G"DGB "Bm"d2B|"Em"e2B "Bm"d2B|"G"DGB "E"dcB|"A7"A3 -"D7"A3|
"G"DGB "Bm"d2B|"Em"e2B "Bm"d2B|"C"cBc "D7"dBA|"G"G3 -G3::
"G"B2G DAB|"Am"cBc "D7"A3|"G"G2B "Em"d2g|"A7"d3 -"D7"d3|
"G"B2G "G7"DAB| "C"cBc "Am"A3|"D7"d^cd e=cA|"G"G3 -G3:|


